fs/people_team_toolbox_24_filled.svg

<svg viewBox="0 0 24 24" fill="none" xmlns="http://www.w3.org/2000/svg" height="1em" width="1em">
  <path d="M14.754 10C15.5468 10 16.2164 10.5271 16.4316 11.25H15.75C14.2312 11.25 13 12.4812 13 14V14.05C11.8589 14.2816 11 15.2905 11 16.5V20.8878C8.99692 20.432 7.50193 18.6401 7.50193 16.499V11.75C7.50193 10.7835 8.28543 10 9.25193 10H14.754ZM19.25 11.25C20.7649 11.25 21.9936 12.4748 22 13.9882V11.75C22 10.7835 21.2165 10 20.25 10L16.8747 9.99906C17.1669 10.3526 17.3724 10.7804 17.4587 11.25H19.25ZM7.13128 9.99906C6.78183 10.4218 6.55636 10.9508 6.51057 11.5304L6.50193 11.75V16.499C6.50193 17.3456 6.69319 18.1476 7.03487 18.864C6.70577 18.953 6.35899 19 6.00124 19C3.79142 19 2 17.2086 2 14.9988V11.75C2 10.8318 2.70711 10.0788 3.60647 10.0058L3.75 10L7.13128 9.99906ZM12 3C13.6569 3 15 4.34315 15 6C15 7.65685 13.6569 9 12 9C10.3431 9 9 7.65685 9 6C9 4.34315 10.3431 3 12 3ZM18.5 4C19.8807 4 21 5.11929 21 6.5C21 7.88071 19.8807 9 18.5 9C17.1193 9 16 7.88071 16 6.5C16 5.11929 17.1193 4 18.5 4ZM5.5 4C6.88071 4 8 5.11929 8 6.5C8 7.88071 6.88071 9 5.5 9C4.11929 9 3 7.88071 3 6.5C3 5.11929 4.11929 4 5.5 4ZM14 15H13.5C12.6716 15 12 15.6716 12 16.5V18H14.5V17.75C14.5 17.3358 14.8358 17 15.25 17C15.6642 17 16 17.3358 16 17.75V18H19V17.75C19 17.3358 19.3358 17 19.75 17C20.1642 17 20.5 17.3358 20.5 17.75V18H23V16.5C23 15.6716 22.3284 15 21.5 15H21V14C21 13.0335 20.2165 12.25 19.25 12.25H15.75C14.7835 12.25 14 13.0335 14 14V15ZM15.5 14C15.5 13.8619 15.6119 13.75 15.75 13.75H19.25C19.3881 13.75 19.5 13.8619 19.5 14V15H15.5V14ZM12 21.5V19.5H14.5V20.25C14.5 20.6642 14.8358 21 15.25 21C15.6642 21 16 20.6642 16 20.25V19.5H19V20.25C19 20.6642 19.3358 21 19.75 21C20.1642 21 20.5 20.6642 20.5 20.25V19.5H23V21.5C23 22.3284 22.3284 23 21.5 23H13.5C12.6716 23 12 22.3284 12 21.5Z" fill="#212121"/>
</svg>

<svg viewBox="0 0 24 24" fill="none" xmlns="http://www.w3.org/2000/svg" height="1em" width="1em">
  <path d="M14.754 10a1.75 1.75 0 0 1 1.678 1.25h-.682A2.75 2.75 0 0 0 13 14v.05a2.5 2.5 0 0 0-2 2.45v4.388a4.503 4.503 0 0 1-3.498-4.389V11.75c0-.966.783-1.75 1.75-1.75h5.502Zm4.496 1.25A2.75 2.75 0 0 1 22 13.988V11.75A1.75 1.75 0 0 0 20.25 10h-3.375c.292.353.497.78.584 1.25h1.791ZM7.131 10a2.72 2.72 0 0 0-.62 1.53l-.01.22v4.749c0 .847.192 1.649.534 2.365A4.001 4.001 0 0 1 2 14.999V11.75a1.75 1.75 0 0 1 1.606-1.744L3.75 10h3.381ZM12 3a3 3 0 1 1 0 6 3 3 0 0 1 0-6Zm6.5 1a2.5 2.5 0 1 1 0 5 2.5 2.5 0 0 1 0-5Zm-13 0a2.5 2.5 0 1 1 0 5 2.5 2.5 0 0 1 0-5ZM14 15h-.5a1.5 1.5 0 0 0-1.5 1.5V18h2.5v-.25a.75.75 0 0 1 1.5 0V18h3v-.25a.75.75 0 0 1 1.5 0V18H23v-1.5a1.5 1.5 0 0 0-1.5-1.5H21v-1a1.75 1.75 0 0 0-1.75-1.75h-3.5A1.75 1.75 0 0 0 14 14v1Zm1.5-1a.25.25 0 0 1 .25-.25h3.5a.25.25 0 0 1 .25.25v1h-4v-1ZM12 21.5v-2h2.5v.75a.75.75 0 0 0 1.5 0v-.75h3v.75a.75.75 0 0 0 1.5 0v-.75H23v2a1.5 1.5 0 0 1-1.5 1.5h-8a1.5 1.5 0 0 1-1.5-1.5Z" fill="#212121"/>
</svg>
